X: 1
T: Across The Rooftops
M: 4/4
L: 1/8
R: reel
K: Amaj
c3e AB~B2|AEFA BAFA|c2ec AB~B2|1 Aafe cBAB:|2 Aafe ~f3g||
afea ef~f2|fgbf gbeg|afea ef~f2|(3cde fa g3e|
a2ea ef~f2|fgbf gbeg|afge f2ec|(3cde fa g3e||
